qdrant-landing/themes/qdrant-2024/static/img/home/connector-line-3.svg

<svg preserveAspectRatio="none" width="100%" height="100%" overflow="visible" style="display: block;" viewBox="0 0 38.3093 204.915" fill="none" xmlns="http://www.w3.org/2000/svg">
<g id="Line-3">
<path id="Line" d="M19.4624 192L19.4624 2.18557e-08" stroke="url(#paint0_linear_13894_237718)" stroke-miterlimit="10"/>
<g id="Point">
<g filter="url(#filter0_i_13894_237718)">
<path d="M21.9831 195.692C19.8492 196.264 16.8531 195.461 15.291 193.899C13.7289 192.337 14.1924 190.607 16.3262 190.035C18.4601 189.464 21.4563 190.266 23.0184 191.828C24.5805 193.391 24.117 195.12 21.9831 195.692Z" fill="var(--fill-0, #2F6FF0)"/>
</g>
<path d="M12.0836 185.793C6.74894 187.222 5.59016 191.547 9.49541 195.452C13.4006 199.357 20.8911 201.364 26.2257 199.935C31.5604 198.505 32.7192 194.181 28.8139 190.276C24.9087 186.37 17.4183 184.363 12.0836 185.793Z" stroke="var(--stroke-0, #2F6FF0)" stroke-opacity="0.1" stroke-width="12"/>
</g>
</g>
<defs>
<filter id="filter0_i_13894_237718" x="0" y="180.813" width="38.3093" height="24.1021" filterUnits="userSpaceOnUse" color-interpolation-filters="sRGB">
<feFlood flood-opacity="0" result="BackgroundImageFix"/>
<feBlend mode="normal" in="SourceGraphic" in2="BackgroundImageFix" result="shape"/>
<feColorMatrix in="SourceAlpha" type="matrix" values="0 0 0 0 0 0 0 0 0 0 0 0 0 0 0 0 0 0 127 0" result="hardAlpha"/>
<feOffset/>
<feGaussianBlur stdDeviation="4"/>
<feComposite in2="hardAlpha" operator="arithmetic" k2="-1" k3="1"/>
<feColorMatrix type="matrix" values="0 0 0 0 0.984694 0 0 0 0 0.984694 0 0 0 0 0.984694 0 0 0 0.25 0"/>
<feBlend mode="normal" in2="shape" result="effect1_innerShadow_13894_237718"/>
</filter>
<linearGradient id="paint0_linear_13894_237718" x1="19.9624" y1="0" x2="19.9624" y2="192" gradientUnits="userSpaceOnUse">
<stop stop-color="#0040A1"/>
<stop offset="1" stop-color="#89A9FF" stop-opacity="0.1"/>
</linearGradient>
</defs>
</svg>

<svg xmlns="http://www.w3.org/2000/svg" fill="none" overflow="visible" preserveAspectRatio="none" style="display:block" viewBox="0 0 38.309 204.915"><path stroke="url(#a)" stroke-miterlimit="10" d="M19.462 192V0"/><g filter="url(#b)"><path fill="var(--fill-0, #2f6ff0)" d="M21.983 195.692c-2.134.572-5.13-.231-6.692-1.793s-1.099-3.292 1.035-3.864c2.134-.571 5.13.231 6.692 1.793 1.563 1.563 1.099 3.292-1.035 3.864"/></g><path stroke="var(--stroke-0, #2f6ff0)" stroke-opacity=".1" stroke-width="12" d="M12.084 185.793c-5.335 1.429-6.494 5.754-2.589 9.659 3.906 3.905 11.396 5.912 16.73 4.483 5.335-1.43 6.494-5.754 2.589-9.659s-11.396-5.913-16.73-4.483Z"/><defs><linearGradient id="a" x1="19.962" x2="19.962" y1="0" y2="192" gradientUnits="userSpaceOnUse"><stop stop-color="#0040a1"/><stop offset="1" stop-color="#89a9ff" stop-opacity=".1"/></linearGradient><filter id="b" width="38.309" height="24.102" x="0" y="180.813" color-interpolation-filters="sRGB" filterUnits="userSpaceOnUse"><feFlood flood-opacity="0" result="BackgroundImageFix"/><feBlend in="SourceGraphic" in2="BackgroundImageFix" result="shape"/><feColorMatrix in="SourceAlpha" result="hardAlpha" values="0 0 0 0 0 0 0 0 0 0 0 0 0 0 0 0 0 0 127 0"/><feOffset/><feGaussianBlur stdDeviation="4"/><feComposite in2="hardAlpha" k2="-1" k3="1" operator="arithmetic"/><feColorMatrix values="0 0 0 0 0.984694 0 0 0 0 0.984694 0 0 0 0 0.984694 0 0 0 0.25 0"/><feBlend in2="shape" result="effect1_innerShadow_13894_237718"/></filter></defs></svg>
